X:1
T:Stulte quid ante
T:Daniel Friderici
T:Source : Bicinia sacra---Rostock---J.Richelius---1642. Editor : André Vierendeels (12/07/17).
T:Notes : Original clefs : G2, G2 Editorial accidentals above the staff
T:Stulte quid ante
T:©
T:©
C:Daniel Friderici
Z:©
%%score [ 1 2 ]
L:1/8
Q:1/4=120
M:2/2
K:C
V:1 treble nm="Soprano 1" snm="S 1"
V:2 treble nm="Soprano 2" snm="S 2"
V:1
 c8 | G4 g4- | g2 f2 e2 d2 | e2 d2 c2 B2 | c2 d2 e2 f2 | g4 d2 g2- | g2 e4 d2 | e2 c2 d2 B2 | %8
w: Stul-|te, stul-||||* te, stul-|* te quid|an- te De- um|
 c6 d2 | e8 | g4 f4 | e2 d2 c2 d2 | e2 c2 d2 e2 | f2 ed c2 d2 | e2 de f4 | d2 d2 c4- | c2 BA B4 | %17
w: me- ri-|tis,|Pha- ri-|sae- * * *||||* e su-|* * * per-|
 c8 :: z8 | e3 d e3 d | e4 d2 f2- | fe f3 e f2- | fe f4 e2 | ^f2 f2 f2 g2 | z2 e2 d2 c2- | %25
w: bis?||tri- * * *|* ta, tri-||* * * ta,|tri- ta be- at,|dam- nat cor-|
 cc B2 A2 c2- | c2 B2 c2 e2 | d2 c3 c B2 | ABcA BcdB | cd e4 dc | BG c3 B/A/ B2 | c8 :| %32
w: * da su- per- ba|_ De- us, dam-|nat cor- da su-|per- * * * * * * *|* * ba De- *||us.|
V:2
 z8 | G8 | C4 c4- | c2 B2 A2 G2 | A2 B2 c4 | G8 | c4 c2 B2 | c2 A2 G4 | A2 F4 F2 | E4 C4- | C4 D4 | %11
w: |Stul-|te, stul-|||te,|stul- te quid|an- te De-|um me- ri-|tis, Pha-|* ri|
 E6 F2 | G2 E2 F2 G2 | A2 B2 c4 | A4 F4 | G8- | G8 | C8 :: c3 B c3 B | c4 B4 | z4 z2 d2- | %21
w: sae- *|||e su-|per-||bis?|tri- * * *|* ta,|tri-|
 d^c d3 c d2- | d^c d4 c2 | d2 d2 d2 e2 | z2 c2 G2 A2- | AA E2 F2 C2 | G4 C2 c2 | G2 A3 A E2 | %28
w: |* * * ta,|tri- ta be- at,|dam- nat cor-|* da su- per- ba|De- us, dam-|nat cor- da su-|
 F4 G4 | A3 B c2 BA | G2 C2 G4 | C8 :| %32
w: per- ba|De- * * * *||us.|

